X:0
T:Dick's Maggot (Tims's Version)
M:3/2
L:1/8
K:G
g2 d4 B4 A2 | \
Bc d2 ABc2 B2 G2 | \
g2 d4 B4 A2 | \
Bc d2 G2G2G4 :|
f2 a4 f4 d2 | \
ga b2 efg2 f2 d2 | \
f2 a4 f4 d2 | \
de f2 A2^c2 d4|
Bc d2 Bcd2 e4 |efg2 efg2 f2d2 | \
g2 d4 B4 A2 | \
A8 {F}G4 :|